exported-svg/delete.svg

<svg height="24" viewBox="0 0 24 24" width="24" xmlns="http://www.w3.org/2000/svg"><path d="m20.5 4c1.3807119 0 2.5 1.11928813 2.5 2.5v12c0 1.3807119-1.1192881 2.5-2.5 2.5h-13c-.14418129 0-.2813443-.0622402-.37628835-.1707477l-7-8c-.16494887-.188513-.16494887-.4699916 0-.6585046l7-8c.09494405-.10850748.23210706-.1707477.37628835-.1707477zm-12.77311589 16h12.77311589c.8284271 0 1.5-.6715729 1.5-1.5v-12c0-.82842712-.6715729-1.5-1.5-1.5h-12.77311589l-6.5625 7.5zm7.48022269-7.5 2.6464466 2.6464466c.1952621.1952622.1952621.5118446 0 .7071068-.1952622.1952621-.5118446.1952621-.7071068 0l-2.6464466-2.6464466-2.6464466 2.6464466c-.1952622.1952621-.5118446.1952621-.7071068 0-.1952621-.1952622-.1952621-.5118446 0-.7071068l2.6464466-2.6464466-2.6464466-2.64644661c-.1952621-.19526215-.1952621-.51184463 0-.70710678.1952622-.19526215.5118446-.19526215.7071068 0l2.6464466 2.64644659 2.6464466-2.64644659c.1952622-.19526215.5118446-.19526215.7071068 0 .1952621.19526215.1952621.51184463 0 .70710678z"/></svg>

<?xml version="1.0" encoding="UTF-8"?>
<svg width="24px" height="24px" viewBox="0 0 24 24" version="1.1" xmlns="http://www.w3.org/2000/svg" xmlns:xlink="http://www.w3.org/1999/xlink">
    <!-- Generator: Sketch 55.2 (78181) - https://sketchapp.com -->
    <title>delete</title>
    <desc>Created with Sketch.</desc>
    <g id="delete" stroke="none" stroke-width="1" fill="none" fill-rule="evenodd">
        <path d="M20.5,4 L7.5,4 C7.35581871,4 7.2186557,4.06224022 7.12371165,4.1707477 L0.123711653,12.1707477 C-0.0412372175,12.3592607 -0.0412372175,12.6407393 0.123711653,12.8292523 L7.12371165,20.8292523 C7.2186557,20.9377598 7.35581871,21 7.5,21 L20.5,21 C21.8807119,21 23,19.8807119 23,18.5 L23,6.5 C23,5.11928813 21.8807119,4 20.5,4 Z M7.72688411,20 L1.16438411,12.5 L7.72688411,5 L20.5,5 C21.3284271,5 22,5.67157288 22,6.5 L22,18.5 C22,19.3284271 21.3284271,20 20.5,20 L7.72688411,20 Z" id="Shape" fill="#000000" fill-rule="nonzero"></path>
        <path d="M15.2071068,12.5 L17.8535534,15.1464466 C18.0488155,15.3417088 18.0488155,15.6582912 17.8535534,15.8535534 C17.6582912,16.0488155 17.3417088,16.0488155 17.1464466,15.8535534 L14.5,13.2071068 L11.8535534,15.8535534 C11.6582912,16.0488155 11.3417088,16.0488155 11.1464466,15.8535534 C10.9511845,15.6582912 10.9511845,15.3417088 11.1464466,15.1464466 L13.7928932,12.5 L11.1464466,9.85355339 C10.9511845,9.65829124 10.9511845,9.34170876 11.1464466,9.14644661 C11.3417088,8.95118446 11.6582912,8.95118446 11.8535534,9.14644661 L14.5,11.7928932 L17.1464466,9.14644661 C17.3417088,8.95118446 17.6582912,8.95118446 17.8535534,9.14644661 C18.0488155,9.34170876 18.0488155,9.65829124 17.8535534,9.85355339 L15.2071068,12.5 Z" id="Combined-Shape" fill="#000000" fill-rule="nonzero"></path>
    </g>
</svg>
